X:1
T:Alhambra, 11.10.11.10
T:Alhambra, 11.10.11.10
T:Victor H. Benke, 1902
T:Public Domain Courtesy of the Cyber Hymnal™
C:Victor H. Benke, 1902
Z:Public Domain
Z:Courtesy of the Cyber Hymnal™
%%score ( 1 2 ) ( 3 4 )
L:1/8
Q:1/4=92
M:4/4
K:Bb
V:1 treble 
V:2 treble 
V:3 bass 
V:4 bass 
V:1
 [DF]2 [B,D][CE] [DF]3 [EF] | [DF][FB][EA][DB] [Fd]2 [Fc]2 | [FA]2 [=EB][EG] [Fc]3 [CF] | %3
 [DA][DG][CF][C=E] F4 | [DF]2 [B,D][CE] [DF]3 [DB] | [EA][FB][Ge][Gd] [Gc]2 [EG]2 | %6
 [CB]2 [^CA][CG] [DF]2 [DG]2 | [FB][EA][EG][EA] !fermata![DB]4 |] %8
V:2
 x8 | x8 | x8 | x4 (C2 _E2) | x8 | x8 | x8 | x8 |] %8
V:3
 [B,,B,]2 [B,,F,][B,,F,] [B,,B,]3 [C,A,] | [D,B,][D,B,][C,F,][B,,F,] [F,B,]2 [F,A,]2 | %2
 [F,C]2 [G,C][B,C] [A,C]3 [F,A,] | [B,,C][B,,B,][C,A,][C,B,] (A,2 C2) | %4
 [B,,B,]2 [B,,F,][B,,F,] [B,,B,]3 [B,,B,] | [C,F,][D,B,][G,=B,][F,B,] [E,C]2 [E,C]2 | %6
 [E,G,]2 [=E,A,][E,B,] [F,B,]2 [F,B,]2 | [F,D][F,C][F,B,][F,C] !fermata![B,,B,]4 |] %8
V:4
 x8 | x8 | x8 | x4 F,4 | x8 | x8 | x8 | x8 |] %8

